X:3033
T:Chumak
S:A. Humenyuk
Q:144
O:Ukraine
M:2/4
L:1/8
A:Ukraine
K:F#min
dfff | f(g/2f/2) ed | \
cd B2 | [EB][c/2e/2][c/2e/2] [ce][ce] | \
[ce]fed | [A2c2] A2 |:
BcdB | (cdcB ABAG) \
|1 Ff/2f/2 ff :|2 [F2c2] [F2c2] |] \
P: Ending
F{GABcdefg}a c2 | f2 z2 |]


